svg/fluentui-system-icons/ic_fluent_share_screen_stop_20_regular.svg

<svg width="20" height="20" viewBox="0 0 20 20" fill="none" xmlns="http://www.w3.org/2000/svg">
<path d="M7.14645 7.14646C7.34171 6.9512 7.65829 6.9512 7.85355 7.14646L10 9.29291L12.1464 7.14646C12.3417 6.9512 12.6583 6.9512 12.8536 7.14646C13.0488 7.34172 13.0488 7.65831 12.8536 7.85357L10.7071 10L12.8536 12.1465C13.0488 12.3417 13.0488 12.6583 12.8536 12.8536C12.6583 13.0488 12.3417 13.0488 12.1464 12.8536L10 10.7071L7.85355 12.8536C7.65829 13.0488 7.34171 13.0488 7.14645 12.8536C6.95118 12.6583 6.95118 12.3417 7.14645 12.1465L9.29289 10L7.14645 7.85357C6.95118 7.65831 6.95118 7.34172 7.14645 7.14646ZM2 6.5C2 5.11929 3.11929 4 4.5 4H15.5C16.8807 4 18 5.11929 18 6.5V13.5C18 14.8807 16.8807 16 15.5 16H4.5C3.11929 16 2 14.8807 2 13.5V6.5ZM4.5 5C3.67157 5 3 5.67157 3 6.5V13.5C3 14.3284 3.67157 15 4.5 15H15.5C16.3284 15 17 14.3284 17 13.5V6.5C17 5.67157 16.3284 5 15.5 5H4.5Z" fill="#212121"/>
</svg>

<svg xmlns="http://www.w3.org/2000/svg" width="20" height="20"><path d="M7.146 7.146a.5.5 0 0 1 .708 0L10 9.293l2.146-2.147a.5.5 0 0 1 .708.708L10.707 10l2.147 2.146a.5.5 0 0 1-.708.708L10 10.707l-2.146 2.147a.5.5 0 0 1-.708-.707L9.293 10 7.146 7.854a.5.5 0 0 1 0-.708ZM2 6.5A2.5 2.5 0 0 1 4.5 4h11A2.5 2.5 0 0 1 18 6.5v7a2.5 2.5 0 0 1-2.5 2.5h-11A2.5 2.5 0 0 1 2 13.5v-7ZM4.5 5A1.5 1.5 0 0 0 3 6.5v7A1.5 1.5 0 0 0 4.5 15h11a1.5 1.5 0 0 0 1.5-1.5v-7A1.5 1.5 0 0 0 15.5 5h-11Z"/></svg>
